X:1
T:Title
%%score ( 1 2 ) ( 3 4 )
L:1/8
Q:1/4=140
M:6/4
K:Ab
V:1 treble nm="Grand Piano, Soprano"
V:2 treble 
V:3 bass nm="Choir Pad, Bass"
V:4 bass 
V:1
 [CE]2 [Ec]4 [Fd]2 [Ec]4 | [DG]2 [DB]2 [CA]2- [CA]4- [CA]3/2 z/ | z2 [FA]3 [FA] [FA]2 [EG]4 | %3
w: By~Ivy~E.~Craig,~1920 * * *|||
 [DF]2 [CE]4- [CE]4- [CE]3/2 z/ | [CE][CE] [DG]4 [CA]2 [DB]4 | [DG]2 [CA]4 [DB]2 [Ec]4 | %6
w: |||
 [Ec][Ec] [=DB]4 [Dc]2 [DG]4 | [=DF]2 E4- E3/2 z/ _D4 | [DE][DE] [Fd]4 [Fd]2 [Ec]4 | %9
w: |||
 [DB]2 [CA]2 [Ec]2- [Ec]4- [Ec]3/2 z/ | [CA][CA] [FA]4 [FA]2 [EG]4 | %11
w: ||
 [DF]2 [CE]4- [CE]4- [CE]3/2 z/ | [CE][CE] [DF]4 [EG]2 [EA]4 | [EB]2 c4 d2 [Ee]4 | %14
w: |||
 [Fd]2 [Ec]4 [Ac]2 [Gc]4 | [GB]2 [EA]4- [EA]6- | [EA]6 z6 |] %17
w: |||
V:2
 x12 | x12 | x12 | x12 | x12 | x12 | x12 | x12 | x12 | x12 | x12 | x12 | x12 | %13
 z2 E4- E3/2 z/ z2 z2 | x12 | x12 | x12 |] %17
V:3
 [A,,A,]2 [A,,A,]4 [A,,A,]2 [E,A,]4 | [E,B,]2 [A,,A,]2 [A,,A,]2- [A,,A,]4- [A,,A,]3/2 z/ | %2
 z2 [D,A,]3 [D,A,] [D,A,]2 [D,A,]4 | [D,A,]2 [A,,A,]4- [A,,A,]4- [A,,A,]3/2 z/ | %4
 [A,,A,][A,,A,] [E,B,]4 [E,A,]2 [E,G,]4 | [E,B,]2 [A,,A,]4 [A,,A,]2 [A,,A,]4 | %6
 [A,,A,][A,,A,] [B,,A,]4 [B,,A,]2 [B,,B,]4 | [B,,A,]2 [E,G,]4- [E,G,]4- [E,G,]3/2 z/ | %8
 [E,G,][E,G,] [E,G,]4 [E,G,]2 [E,A,]4 | [E,G,]2 [A,,A,]2 [A,,A,]2- [A,,A,]4- [A,,A,]3/2 z/ | %10
 [A,,A,][A,,A,] [D,A,]4 [D,A,]2 [D,A,]4 | [D,A,]2 [A,,A,]4- [A,,A,]4- [A,,A,]3/2 z/ | %12
 [A,,A,][A,,A,] [D,A,]4 [D,B,]2 [C,A,]4 | .[E,G,]6 B,2 C4 | [D,A,]2 [E,A,]4 [E,E]2 [E,E]4 | %15
 [E,D]2 [A,C]4- [A,C]6- | [A,C]6 z6 |] %17
V:4
 x12 | x12 | x12 | x12 | x12 | x12 | x12 | x12 | x12 | x12 | x12 | x12 | x12 | z2 A,4- A,2 z2 z2 | %14
 x12 | x12 | x12 |] %17

